templates/main/build/images/best-proposition.svg

<?xml version="1.0" encoding="utf-8"?>
<svg width="46px" height="46px" viewBox="0 0 46 46" version="1.1" xmlns:xlink="http://www.w3.org/1999/xlink" xmlns="http://www.w3.org/2000/svg">
  <desc>Created with Lunacy</desc>
  <defs>
    <path d="M9.999 0L22.001 0Q22.2465 0 22.4916 0.0120442Q22.7368 0.0240885 22.9811 0.0481479Q23.2254 0.0722074 23.4682 0.108224Q23.711 0.144241 23.9517 0.192128Q24.1924 0.240015 24.4306 0.299657Q24.6687 0.3593 24.9036 0.430553Q25.1384 0.501807 25.3696 0.584501Q25.6007 0.667194 25.8274 0.761128Q26.0542 0.855062 26.2761 0.960011Q26.498 1.06496 26.7145 1.18067Q26.931 1.29638 27.1415 1.42257Q27.352 1.54876 27.5561 1.68514Q27.7602 1.82151 27.9574 1.96773Q28.1546 2.11395 28.3443 2.26967Q28.534 2.42539 28.7159 2.59023Q28.8978 2.75507 29.0714 2.92864Q29.2449 3.10221 29.4098 3.28408Q29.5746 3.46596 29.7303 3.6557Q29.886 3.84545 30.0323 4.0426Q30.1785 4.23976 30.3149 4.44385Q30.4512 4.64795 30.5774 4.85849Q30.7036 5.06903 30.8193 5.2855Q30.935 5.50198 31.04 5.72388Q31.1449 5.94577 31.2389 6.17255Q31.3328 6.39932 31.4155 6.63044Q31.4982 6.86155 31.5694 7.09644Q31.6407 7.33134 31.7003 7.56944Q31.76 7.80755 31.8079 8.04829Q31.8558 8.28904 31.8918 8.53184Q31.9278 8.77465 31.9519 9.01893Q31.9759 9.26321 31.988 9.50837Q32 9.75354 32 9.999L32 22.001Q32 22.2465 31.988 22.4916Q31.9759 22.7368 31.9519 22.9811Q31.9278 23.2254 31.8918 23.4682Q31.8558 23.711 31.8079 23.9517Q31.76 24.1924 31.7003 24.4306Q31.6407 24.6687 31.5694 24.9036Q31.4982 25.1384 31.4155 25.3696Q31.3328 25.6007 31.2389 25.8274Q31.1449 26.0542 31.04 26.2761Q30.935 26.498 30.8193 26.7145Q30.7036 26.931 30.5774 27.1415Q30.4512 27.352 30.3149 27.5561Q30.1785 27.7602 30.0323 27.9574Q29.886 28.1546 29.7303 28.3443Q29.5746 28.534 29.4098 28.7159Q29.2449 28.8978 29.0714 29.0714Q28.8978 29.2449 28.7159 29.4098Q28.534 29.5746 28.3443 29.7303Q28.1546 29.886 27.9574 30.0323Q27.7602 30.1785 27.5561 30.3149Q27.352 30.4512 27.1415 30.5774Q26.931 30.7036 26.7145 30.8193Q26.498 30.935 26.2761 31.04Q26.0542 31.1449 25.8274 31.2389Q25.6007 31.3328 25.3696 31.4155Q25.1384 31.4982 24.9036 31.5694Q24.6687 31.6407 24.4306 31.7003Q24.1924 31.76 23.9517 31.8079Q23.711 31.8558 23.4682 31.8918Q23.2254 31.9278 22.9811 31.9519Q22.7368 31.9759 22.4916 31.988Q22.2465 32 22.001 32L9.999 32Q9.75354 32 9.50837 31.988Q9.26321 31.9759 9.01893 31.9519Q8.77465 31.9278 8.53184 31.8918Q8.28904 31.8558 8.04829 31.8079Q7.80755 31.76 7.56944 31.7003Q7.33134 31.6407 7.09644 31.5694Q6.86155 31.4982 6.63044 31.4155Q6.39932 31.3328 6.17255 31.2389Q5.94577 31.1449 5.72388 31.04Q5.50198 30.935 5.2855 30.8193Q5.06903 30.7036 4.85849 30.5774Q4.64795 30.4512 4.44385 30.3149Q4.23976 30.1785 4.0426 30.0323Q3.84545 29.886 3.6557 29.7303Q3.46596 29.5746 3.28408 29.4098Q3.10221 29.2449 2.92864 29.0714Q2.75507 28.8978 2.59023 28.7159Q2.42539 28.534 2.26967 28.3443Q2.11395 28.1546 1.96773 27.9574Q1.82151 27.7602 1.68514 27.5561Q1.54876 27.352 1.42257 27.1415Q1.29638 26.931 1.18067 26.7145Q1.06496 26.498 0.960011 26.2761Q0.855062 26.0542 0.761128 25.8274Q0.667194 25.6007 0.584501 25.3696Q0.501807 25.1384 0.430553 24.9036Q0.3593 24.6687 0.299657 24.4306Q0.240015 24.1924 0.192128 23.9517Q0.144241 23.711 0.108224 23.4682Q0.0722074 23.2254 0.0481479 22.9811Q0.0240885 22.7368 0.0120442 22.4916Q0 22.2465 0 22.001L0 9.999Q0 9.75354 0.0120442 9.50837Q0.0240885 9.26321 0.0481479 9.01893Q0.0722074 8.77465 0.108224 8.53184Q0.144241 8.28904 0.192128 8.04829Q0.240015 7.80755 0.299657 7.56944Q0.3593 7.33134 0.430553 7.09644Q0.501807 6.86155 0.584501 6.63044Q0.667194 6.39932 0.761128 6.17255Q0.855062 5.94577 0.960011 5.72388Q1.06496 5.50198 1.18067 5.2855Q1.29638 5.06903 1.42257 4.85849Q1.54876 4.64795 1.68514 4.44385Q1.82151 4.23976 1.96773 4.0426Q2.11395 3.84545 2.26967 3.6557Q2.42539 3.46596 2.59023 3.28408Q2.75507 3.10221 2.92864 2.92864Q3.10221 2.75507 3.28408 2.59023Q3.46596 2.42539 3.6557 2.26967Q3.84545 2.11395 4.0426 1.96773Q4.23976 1.82151 4.44385 1.68514Q4.64795 1.54876 4.85849 1.42257Q5.06903 1.29638 5.2855 1.18067Q5.50198 1.06496 5.72388 0.960011Q5.94577 0.855062 6.17255 0.761128Q6.39932 0.667194 6.63044 0.584501Q6.86155 0.501807 7.09644 0.430553Q7.33134 0.3593 7.56944 0.299657Q7.80755 0.240015 8.04829 0.192128Q8.28904 0.144241 8.53184 0.108224Q8.77465 0.0722074 9.01893 0.0481479Q9.26321 0.0240885 9.50837 0.0120442Q9.75354 0 9.999 0Z" transform="matrix(0.9205049 -0.3907311 0.3907311 0.9205049 0.6476412 13.15104)" id="path_1" />
    <clipPath id="clip_1">
      <use xlink:href="#path_1" />
    </clipPath>
  </defs>
  <g id="best-proposition-card-smeg">
    <g id="new" transform="translate(1 1)">
      <g id="Rectangle-13">
        <g clip-path="url(#clip_1)">
          <use xlink:href="#path_1" fill="none" stroke="#BA1212" stroke-width="4" />
        </g>
      </g>
      <path d="M0.686844 0.660298C1.57158 -0.220099 3.11703 -0.220099 4.00082 0.660298L5.98959 2.63932C6.17312 2.82195 6.17312 3.11698 5.98959 3.29868L3.33822 5.938C3.15562 6.1197 2.8582 6.1197 2.67561 5.938L0.686844 3.95804C-0.228948 3.04767 -0.228948 1.5716 0.686844 0.660298ZM15.3132 0.660298C14.4284 -0.220099 12.883 -0.220099 11.9992 0.660298L9.97935 2.63932C9.79582 2.82195 9.79582 3.11698 9.97935 3.29868L12.6618 5.938C12.8444 6.1197 13.1418 6.1197 13.3244 5.938L15.3132 3.95804C16.2289 3.04767 16.2289 1.5716 15.3132 0.660298ZM5.92587 4.6825L13.9515 11.1712C14.2932 11.4494 14.0965 11.9992 13.655 11.9992L10.4954 11.9992C10.3618 11.9992 10.2356 11.943 10.1462 11.8446L4.73242 5.87009L5.92587 4.6825ZM11.2689 5.87047L10.0754 4.68287L8.7427 5.73841L10.2844 6.96347L11.2689 5.87047ZM7.37099 10.1643L5.61565 8.24895L2.04942 11.1721C1.70683 11.4493 1.90448 12 2.34496 12L5.50553 12C5.63918 12 5.7653 11.9429 5.85471 11.8445L7.37099 10.1643Z" transform="translate(14 15)" id="Shape" fill="#BA1212" fill-rule="evenodd" stroke="none" />
    </g>
  </g>
</svg>

<svg width="46" height="46" xmlns:xlink="http://www.w3.org/1999/xlink" xmlns="http://www.w3.org/2000/svg"><defs><clipPath id="b"><use xlink:href="#a"/></clipPath><path d="M9.999 0h12.002q.245 0 .49.012.246.012.49.036.244.024.487.06t.484.084q.24.048.479.108.238.06.473.13.234.072.466.155.23.082.457.176.227.094.45.199.221.105.438.22.216.116.427.243.21.126.414.262.204.137.401.283.198.146.387.302.19.155.372.32t.355.339q.174.173.339.355.165.182.32.372.156.19.302.387t.283.4q.136.205.262.415.127.211.242.428.116.216.221.438t.199.449q.094.226.177.457.082.232.153.466.072.235.131.473.06.239.108.48.048.24.084.483.036.243.06.487t.036.49q.012.245.012.49v12.002q0 .245-.012.49-.012.246-.036.49-.024.244-.06.487t-.084.484q-.048.24-.108.479-.06.238-.13.473-.072.234-.154.466-.083.23-.177.457-.094.227-.199.45-.105.221-.22.438-.116.216-.243.427-.126.21-.262.414-.137.204-.283.401-.146.198-.302.387-.155.19-.32.372t-.339.355q-.173.174-.355.339-.182.165-.372.32-.19.156-.387.302t-.4.283q-.205.136-.415.262-.211.127-.427.242-.217.116-.439.221t-.449.199q-.226.094-.457.177-.232.082-.466.153-.235.072-.473.131-.239.06-.48.108-.24.048-.483.084-.243.036-.487.06t-.49.036q-.244.012-.49.012H9.999q-.245 0-.49-.012-.246-.012-.49-.036-.244-.024-.487-.06t-.484-.084q-.24-.048-.479-.108-.238-.06-.473-.13-.234-.072-.466-.154-.23-.083-.457-.177-.227-.094-.45-.199-.221-.105-.438-.22-.216-.116-.427-.243-.21-.126-.414-.262-.204-.137-.401-.283-.198-.146-.387-.302-.19-.155-.372-.32t-.355-.339q-.174-.173-.339-.355-.165-.182-.32-.372-.156-.19-.302-.387t-.283-.4q-.136-.205-.262-.415-.127-.211-.242-.427-.116-.217-.221-.439t-.199-.449q-.094-.226-.176-.457-.083-.232-.154-.466-.072-.235-.131-.473-.06-.239-.108-.48-.048-.24-.084-.483-.036-.243-.06-.487t-.036-.49Q0 22.248 0 22.002V9.999q0-.245.012-.49.012-.246.036-.49.024-.244.06-.487t.084-.484Q.24 7.808.3 7.57t.13-.473q.072-.234.155-.466.082-.23.176-.457.094-.227.199-.45.105-.221.22-.438.116-.216.243-.427.126-.21.262-.414.137-.204.283-.401.146-.198.302-.387.155-.19.32-.372t.339-.355q.173-.174.355-.339.182-.165.372-.32.19-.156.387-.302t.4-.283q.205-.136.415-.262.211-.127.428-.242.216-.116.438-.221t.449-.199q.226-.094.457-.176.232-.083.466-.154Q7.331.359 7.57.3q.239-.06.48-.108.24-.048.483-.084.243-.036.487-.06t.49-.036Q9.753 0 9.998 0z" transform="rotate(-23 32.644 4.984)" id="a"/></defs><g clip-path="url(#b)" transform="translate(1 1)"><use xlink:href="#a" fill="none" stroke="#BA1212" stroke-width="4"/></g><path d="M15.687 16.66c.885-.88 2.43-.88 3.314 0l1.989 1.98a.464.464 0 010 .659l-2.652 2.639a.47.47 0 01-.662 0l-1.99-1.98a2.323 2.323 0 010-3.298zm14.626 0c-.885-.88-2.43-.88-3.314 0l-2.02 1.98a.464.464 0 000 .659l2.683 2.639a.47.47 0 00.662 0l1.99-1.98a2.323 2.323 0 000-3.298zm-9.387 4.023l8.026 6.488a.466.466 0 01-.297.828h-3.16a.47.47 0 01-.349-.154l-5.414-5.975 1.194-1.188zm5.343 1.187l-1.194-1.187-1.332 1.055 1.541 1.225.985-1.093zm-3.898 4.294l-1.755-1.915-3.567 2.923a.466.466 0 00.296.828h3.16c.134 0 .26-.057.35-.155l1.516-1.68z" fill="#BA1212" fill-rule="evenodd"/></svg>
